icons/young_people.svg

<svg width="48" height="48" viewBox="0 0 48 48" fill="none" xmlns="http://www.w3.org/2000/svg">
<path fill-rule="evenodd" clip-rule="evenodd" d="M29.5 12C29.5 9.79086 31.2909 8 33.5 8C35.7091 8 37.5 9.79086 37.5 12C37.5 14.2091 35.7091 16 33.5 16C31.2909 16 29.5 14.2091 29.5 12ZM33.5 10C32.3954 10 31.5 10.8954 31.5 12C31.5 13.1046 32.3954 14 33.5 14C34.6046 14 35.5 13.1046 35.5 12C35.5 10.8954 34.6046 10 33.5 10Z" fill="black"/>
<path fill-rule="evenodd" clip-rule="evenodd" d="M10 17C9.44772 17 9 17.4477 9 18C9 18.1359 9.0271 18.2654 9.07618 18.3835C7.26969 19.1372 6 20.9203 6 23V25C6 27.0512 7.23448 28.8122 9.00001 29.5836L9.00001 36.0002C9.00001 37.6155 10.2789 38.9407 11.8931 38.9983C12.9715 39.0368 13.941 38.5002 14.5 37.6593C15.0591 38.5002 16.0285 39.0368 17.1069 38.9983C18.7212 38.9407 20 37.6155 20 36.0002V29.5836C21.7655 28.8122 23 27.0512 23 25V23C23 20.9203 21.7303 19.1372 19.9238 18.3835C19.9729 18.2654 20 18.1359 20 18C20 17.4477 19.5523 17 19 17H10ZM11 28.874L11 28.8698V26.9145C11.4511 26.8304 11.8659 26.6804 12.2361 26.4474C12.8806 26.0419 13.2837 25.4524 13.5335 24.7882C13.7758 24.144 13.8852 23.4015 13.9403 22.6238C13.9958 21.8409 14 20.9524 14 20H15C15 20.9524 15.0042 21.8409 15.0597 22.6238C15.1148 23.4015 15.2242 24.144 15.4665 24.7882C15.7163 25.4524 16.1194 26.0419 16.7639 26.4474C17.1341 26.6804 17.5489 26.8304 18 26.9145L18 36.0002C18 36.5386 17.5737 36.9804 17.0357 36.9996C16.4976 37.0188 16.0409 36.6085 16.0025 36.0715L15.4975 29.0003C15.4601 28.477 15.0246 28.0716 14.5 28.0716C13.9754 28.0716 13.5399 28.477 13.5025 29.0003L12.9975 36.0715C12.9591 36.6085 12.5024 37.0188 11.9644 36.9996C11.4263 36.9804 11 36.5386 11 36.0002V28.874ZM8 25C8 25.8879 8.38612 26.6867 9 27.2363V22H11V24.8427C11.0659 24.815 11.1223 24.7853 11.1709 24.7547C11.3634 24.6336 11.5273 24.4411 11.6616 24.0841C11.8034 23.7069 11.8953 23.1888 11.9453 22.4824C11.995 21.7813 12 20.9625 12 20H11C9.34315 20 8 21.3431 8 23V25ZM21 25C21 25.8879 20.6139 26.6867 20 27.2363V22H18V24.8427C17.9341 24.815 17.8777 24.7853 17.8291 24.7547C17.6366 24.6336 17.4727 24.4411 17.3384 24.0841C17.1966 23.7069 17.1047 23.1888 17.0547 22.4824C17.005 21.7813 17 20.9625 17 20H18C19.6569 20 21 21.3431 21 23V25Z" fill="black"/>
<path fill-rule="evenodd" clip-rule="evenodd" d="M28.0762 18.3835C26.2697 19.1372 25 20.9203 25 23V25C25 26.7723 25.9216 28.3277 27.3105 29.2155L26.0856 31.0303C25.2526 32.2644 26.013 33.9639 27.5228 34.1176C29.1202 34.2802 31.6195 34.5 33.5 34.5C35.3805 34.5 37.8798 34.2802 39.4772 34.1176C40.987 33.9639 41.7474 32.2644 40.9144 31.0303L39.6895 29.2155C41.0784 28.3277 42 26.7723 42 25V23C42 20.9203 40.7303 19.1372 38.9238 18.3835C38.9729 18.2654 39 18.1359 39 18C39 17.4477 38.5523 17 38 17H29C28.4477 17 28 17.4477 28 18C28 18.1359 28.0271 18.2654 28.0762 18.3835ZM27 23C27 21.3431 28.3431 20 30 20H31C31 20.9625 30.995 21.7813 30.9453 22.4824C30.8953 23.1888 30.8034 23.7069 30.6616 24.0841C30.5273 24.4411 30.3634 24.6336 30.1709 24.7547C30.1223 24.7853 30.0659 24.815 30 24.8427V23H28V27.2364C27.386 26.6866 27 25.8878 27 25V23ZM30.3654 28.2646L30 28.1486V26.9145C30.4511 26.8304 30.8659 26.6804 31.2361 26.4474C31.8806 26.0419 32.2837 25.4524 32.5335 24.7882C32.7758 24.144 32.8852 23.4015 32.9403 22.6238C32.9958 21.8409 33 20.9524 33 20H34C34 20.9524 34.0042 21.8409 34.0597 22.6238C34.1148 23.4015 34.2242 24.144 34.4665 24.7882C34.7163 25.4524 35.1194 26.0419 35.7639 26.4474C36.1341 26.6804 36.5489 26.8304 37 26.9145V28.1486L36.6346 28.2646L39.2444 32.131C37.6498 32.2929 35.2585 32.5 33.5 32.5C31.7415 32.5 29.3502 32.2929 27.7556 32.131L30.3654 28.2646ZM39 27.2364C39.614 26.6866 40 25.8878 40 25V23C40 21.3431 38.6569 20 37 20H36C36 20.9625 36.005 21.7813 36.0547 22.4824C36.1047 23.1888 36.1966 23.7069 36.3384 24.0841C36.4727 24.4411 36.6366 24.6336 36.8291 24.7547C36.8777 24.7853 36.9341 24.815 37 24.8427V23H39V27.2364Z" fill="black"/>
<path d="M31.7704 36.1439C30.7177 36.0882 29.6416 35.9797 28.5 35.8172V37.0001C28.5 37.7554 29.0616 38.3929 29.8109 38.4881C30.5602 38.5833 31.2634 38.1066 31.4523 37.3753L31.7704 36.1439Z" fill="black"/>
<path d="M35.2277 36.1365L35.5477 37.3753C35.7366 38.1066 36.4398 38.5833 37.1891 38.4881C37.9384 38.3929 38.5 37.7554 38.5 37.0001V35.8027C37.3578 35.9651 36.2811 36.0767 35.2277 36.1365Z" fill="black"/>
<path fill-rule="evenodd" clip-rule="evenodd" d="M14.5 8C12.2909 8 10.5 9.79086 10.5 12C10.5 14.2091 12.2909 16 14.5 16C16.7091 16 18.5 14.2091 18.5 12C18.5 9.79086 16.7091 8 14.5 8ZM12.5 12C12.5 10.8954 13.3954 10 14.5 10C15.6046 10 16.5 10.8954 16.5 12C16.5 13.1046 15.6046 14 14.5 14C13.3954 14 12.5 13.1046 12.5 12Z" fill="black"/>
</svg>

<svg
  xmlns="http://www.w3.org/2000/svg"
  width="24"
  height="24"
  viewBox="0 0 24 24"
  fill="none"
  stroke="currentColor"
  stroke-width="2"
  stroke-linecap="round"
  stroke-linejoin="round"
>
  <path
    fill-rule="evenodd"
    d="M29.5 12a4 4 0 1 1 8 0 4 4 0 0 1-8 0m4-2a2 2 0 1 0 0 4 2 2 0 0 0 0-4"
    clip-rule="evenodd"
  />
  <path
    fill-rule="evenodd"
    d="M10 17a1 1 0 0 0-.924 1.384A5 5 0 0 0 6 23v2a5 5 0 0 0 3 4.584V36a3 3 0 0 0 5.5 1.66A3 3 0 0 0 20 36v-6.416A5 5 0 0 0 23 25v-2c0-2.08-1.27-3.863-3.076-4.616A1 1 0 0 0 19 17zm1 11.874v-1.96a3.5 3.5 0 0 0 1.236-.467c.645-.405 1.048-.995 1.297-1.659.243-.644.352-1.387.407-2.164.056-.783.06-1.672.06-2.624h1c0 .952.004 1.84.06 2.624.055.777.164 1.52.406 2.164.25.664.653 1.254 1.298 1.66.37.232.785.382 1.236.466V36a1 1 0 0 1-1.997.072L15.498 29a1 1 0 0 0-1.995 0l-.505 7.072A1 1 0 0 1 11 36zM8 25c0 .888.386 1.687 1 2.236V22h2v2.843q.098-.042.17-.088c.193-.121.357-.314.492-.67.141-.378.233-.896.283-1.603.05-.7.055-1.52.055-2.482h-1a3 3 0 0 0-3 3zm13 0c0 .888-.386 1.687-1 2.236V22h-2v2.843a1 1 0 0 1-.17-.088c-.193-.121-.357-.314-.492-.67-.141-.378-.233-.896-.283-1.603-.05-.7-.055-1.52-.055-2.482h1a3 3 0 0 1 3 3z"
    clip-rule="evenodd"
  />
  <path
    fill-rule="evenodd"
    d="M28.076 18.384A5 5 0 0 0 25 23v2c0 1.772.922 3.328 2.31 4.215l-1.224 1.815c-.833 1.234-.073 2.934 1.437 3.088 1.597.162 4.096.382 5.977.382 1.88 0 4.38-.22 5.977-.382 1.51-.154 2.27-1.854 1.437-3.088l-1.224-1.815A5 5 0 0 0 42 25v-2c0-2.08-1.27-3.863-3.076-4.616A1 1 0 0 0 38 17h-9a1 1 0 0 0-.924 1.384M27 23a3 3 0 0 1 3-3h1c0 .962-.005 1.781-.055 2.482-.05.707-.142 1.225-.283 1.602-.135.357-.299.55-.491.67q-.073.047-.171.089V23h-2v4.236c-.614-.55-1-1.348-1-2.236zm3.365 5.265L30 28.149v-1.235a3.5 3.5 0 0 0 1.236-.467c.645-.405 1.048-.995 1.297-1.659.243-.644.352-1.387.407-2.164.056-.783.06-1.672.06-2.624h1c0 .952.004 1.84.06 2.624.055.777.164 1.52.407 2.164.25.664.652 1.254 1.297 1.66.37.232.785.382 1.236.466v1.235l-.365.116 2.61 3.866c-1.595.162-3.986.369-5.745.369s-4.15-.207-5.744-.369zM39 27.236c.614-.55 1-1.348 1-2.236v-2a3 3 0 0 0-3-3h-1c0 .962.005 1.781.055 2.482.05.707.142 1.225.283 1.602.135.357.299.55.491.67q.073.047.171.089V23h2z"
    clip-rule="evenodd"
  />
  <path d="M31.77 36.144a37 37 0 0 1-3.27-.327V37a1.5 1.5 0 0 0 2.952.375z" />
  <path d="m35.228 36.137.32 1.238A1.5 1.5 0 0 0 38.5 37v-1.197a39 39 0 0 1-3.272.334" />
  <path
    fill-rule="evenodd"
    d="M14.5 8a4 4 0 1 0 0 8 4 4 0 0 0 0-8m-2 4a2 2 0 1 1 4 0 2 2 0 0 1-4 0"
    clip-rule="evenodd"
  />
</svg>
